X:282
T:Goathland Square Eight
S:Colin Hume's website,  colinhume.com  - chords can also be printed below the stave.
Q:1/2=112
M:2/2
L:1/8
K:G
P:A
|: D2 | "G"G2GB d2B2 | g2d2 B2G2 | "Am"c2AB c2B2 | "D7"A2G2 F2D2 |\
"G"G2GB d2B2 | g2d2 B2G2 | "Am"A2AB c2ec | "D7"A2F2 "G"G2 :|
P:B
|: D2 | "G"G2gg g2gf | "C"e2ee e2ed | "Am"c2a2 a2ag | "D"f2d2 d2ef |\
"Em"g2e2 "A7"e2ag | "D"f2d2 "G"d2g2 | "A7"e2^c2 "D7"A2d=c | "G"B2G2 G2 :|
